X: 910
T: Gözüm Hasretle Giryandır
C: Tatyos Efendi
O: Turkey
F: http://compmusic.upf.edu/node/140
N: huzzam--sarki--aksak--gozum_hasretle--tatyos_efendi
N: makam= huzzam
N: form= sarki
N: usul= aksak = 9/8
M: 9/8
L: 1/16
K: C _1/4B _3/4e ^3/4f 
Q: 1/4=144
%%MIDI tuningsystem comma53
cd2d d2de dcBc dede dc | de2dag gffe edd2 e2f2  | 
w:  ARANAĞME  |   | 
df2f f2ed fga_b agfe dc | Bc def2 eddc cBB6  | 
w:   |   | 
cd2d d2de dcBc dede dc | de2dag gffe edd2 e2f2  | 
w:  ARANAĞME  |   | 
df2f f2ed fga_b agfe dc | Bc def2 eddc cBB6  | 
w:   |   | 
B2c4d2 d4 d6 | d2 f2e2 d2d3_1/4edc B^AB2  | \
w:  Gö züm  *  has ret  |  le  gir *  *  yan *  dır   | 
z2Bc d2e2 f2d2 e2c2 ed | 
w:  of   | 
d6 fedc B^AB6  | B2c4d2 d4 d6 | d2 f2e2 d2d3_1/4edc B^AB2  | 
w:  of  SAZ  |  Gö züm  *  has ret  |  le  gir *  *  yan *  dır   | 
z2Bc d2e2 f2d2 e2c2 ed | d6 fedc Bcd6  | \
w:  of   |  of  SAZ  | 
c2d4g2 _1/4e2g2 =f2e2 d2 | 
w:  Ya man  *  ha *  lim   | 
_1/4e2 =f2e2 d2d3edc B^AB2  | g3f f3_1/4e e3d dedc cB | 
w:  pe ri *  *  şan *  dır   |  of   | 
B6 fedc Bcd6  | c2d4g2 _1/4e2g2 =f2e2 d2 | \
w:  of  SAZ  |  Ya man  *  ha *  lim   | 
_1/4e2 =f2e2 d2d3edc B^AB2  | 
w:  pe ri *  *  şan *  dır   | 
g3f f3_1/4e e3d dedc cB | B6 aggf f^ef6  | \
w:  of   |  of  SAZ  | 
B2B4g2 _1/4e2g2 =f2e2 d2 | 
w:  He mî *  şe  *  kâ  | 
_1/4e2 =f2e2 d2d3edc B^AB2  | z2Bc d2e2 f2d2 e2c2 ed | 
w:  rım  ef *  *  gan *  dır   |  of   | 
d6 aggf f^ef6  | B2B4g2 _1/4e2g2 =f2e2 d2 | \
w:  of  SAZ  |  He mî *  şe  *  kâ  | 
_1/4e2 =f2e2 d2d3edc B^AB2  | 
w:  rım  ef *  *  gan *  dır   | 
z2Bc d2e2 f2d2 e2c2 ed | d6 fedc Bcd6  | \
w:  of   |  of  SAZ  | 
c2d4g2 _1/4e2g2 =f2e2 d2 | 
w:  Ya man  *  ha *  lim   | 
_1/4e2 =f2e2 d2d3edc B^AB2  | g3f f3_1/4e e3d dedc cB | 
w:  pe ri *  *  şan *  dır   |  of   | 
B6 fedc B^AB6  | |


